svgs/sharp-regular/person-circle-minus.svg

<svg xmlns="http://www.w3.org/2000/svg" viewBox="0 0 576 512"><!--! Font Awesome Pro 6.6.0 by @fontawesome - https://fontawesome.com License - https://fontawesome.com/license (Commercial License) Copyright 2024 Fonticons, Inc. --><path d="M112 48a48 48 0 1 1 96 0 48 48 0 1 1 -96 0zM94.8 128l14.1 0 102.2 0 14.1 0 6.9 12.4 64.1 115.7c-11.8 14.3-21.4 30.5-28.2 48.1l-2.5-4.6L224 224.9 224 488l0 24-48 0 0-24 0-136-32 0 0 136 0 24-48 0 0-24 0-263.1L54.6 299.6 43 320.6 1 297.4l11.6-21 75.3-136L94.8 128zM144 304l32 0 0-128-32 0 0 128zm144 64a144 144 0 1 1 288 0 144 144 0 1 1 -288 0zm224 16l0-32-16 0-128 0-16 0 0 32 16 0 128 0 16 0z"/></svg>

<svg xmlns="http://www.w3.org/2000/svg" viewBox="0 0 576 512"><!--! Font Awesome Pro 6.4.2 by @fontawesome - https://fontawesome.com License - https://fontawesome.com/license (Commercial License) Copyright 2023 Fonticons, Inc. --><path d="M112 48a48 48 0 1 1 96 0 48 48 0 1 1 -96 0zM94.8 128h14.1H211.1h14.1l6.9 12.4 64.1 115.7c-11.8 14.3-21.4 30.5-28.2 48.1l-2.5-4.6L224 224.9V488v24H176V488 352H144V488v24H96V488 224.9L54.6 299.6 43 320.6 1 297.4l11.6-21 75.3-136L94.8 128zM144 304h32V176H144V304zm144 64a144 144 0 1 1 288 0 144 144 0 1 1 -288 0zm224 16V352H496 368 352v32h16H496h16z"/></svg>
